svg/fluentui-system-icons/ic_fluent_people_checkmark_24_regular.svg

<svg width="24" height="24" viewBox="0 0 24 24" fill="none" xmlns="http://www.w3.org/2000/svg">
<path d="M5.5 7C5.5 5.61929 6.61929 4.5 8 4.5C9.38071 4.5 10.5 5.61929 10.5 7C10.5 8.38071 9.38071 9.5 8 9.5C6.61929 9.5 5.5 8.38071 5.5 7ZM8 3C5.79086 3 4 4.79086 4 7C4 9.20914 5.79086 11 8 11C10.2091 11 12 9.20914 12 7C12 4.79086 10.2091 3 8 3ZM15.5 8C15.5 7.17157 16.1716 6.5 17 6.5C17.8284 6.5 18.5 7.17157 18.5 8C18.5 8.82843 17.8284 9.5 17 9.5C16.1716 9.5 15.5 8.82843 15.5 8ZM17 5C15.3431 5 14 6.34315 14 8C14 9.65685 15.3431 11 17 11C18.6569 11 20 9.65685 20 8C20 6.34315 18.6569 5 17 5ZM4.25 13C3.00736 13 2 14.0074 2 15.25V15.5011L2 15.5022L2.00001 15.5048L2.00007 15.5111L2.00035 15.5277C2.00064 15.5406 2.00117 15.5571 2.0021 15.5771C2.00396 15.6169 2.00745 15.6705 2.01398 15.7358C2.02701 15.8661 2.05233 16.045 2.10165 16.2564C2.19995 16.6776 2.39654 17.2404 2.79183 17.8051C3.61066 18.9749 5.17178 20 8 20C9.36897 20 10.4411 19.7598 11.2758 19.3793C11.1268 18.8851 11.035 18.366 11.0082 17.8299C10.3633 18.2108 9.41267 18.5 8 18.5C5.57822 18.5 4.51434 17.6501 4.02067 16.9449C3.75971 16.5721 3.62818 16.1974 3.56241 15.9155C3.5297 15.7753 3.514 15.6612 3.50653 15.5865C3.50281 15.5493 3.50117 15.5222 3.50047 15.5072L3.5 15.4947V15.25C3.5 14.8358 3.83579 14.5 4.25 14.5H11.7322C11.9807 14.0233 12.2865 13.5813 12.6405 13.1831C12.3674 13.0653 12.0663 13 11.75 13H4.25ZM23 17.5C23 20.5376 20.5376 23 17.5 23C14.4624 23 12 20.5376 12 17.5C12 14.4624 14.4624 12 17.5 12C20.5376 12 23 14.4624 23 17.5ZM20.8536 15.1464C20.6583 14.9512 20.3417 14.9512 20.1464 15.1464L16.5 18.7929L14.8536 17.1464C14.6583 16.9512 14.3417 16.9512 14.1464 17.1464C13.9512 17.3417 13.9512 17.6583 14.1464 17.8536L16.1464 19.8536C16.3417 20.0488 16.6583 20.0488 16.8536 19.8536L20.8536 15.8536C21.0488 15.6583 21.0488 15.3417 20.8536 15.1464Z" fill="#212121"/>
</svg>

<svg xmlns="http://www.w3.org/2000/svg" width="24" height="24"><path d="M5.5 7a2.5 2.5 0 1 1 5 0 2.5 2.5 0 0 1-5 0ZM8 3a4 4 0 1 0 0 8 4 4 0 0 0 0-8Zm7.5 5a1.5 1.5 0 1 1 3 0 1.5 1.5 0 0 1-3 0ZM17 5a3 3 0 1 0 0 6 3 3 0 0 0 0-6ZM4.25 13A2.25 2.25 0 0 0 2 15.25v.278a2.073 2.073 0 0 0 .014.208 4.487 4.487 0 0 0 .778 2.07C3.61 18.974 5.172 20 8 20c1.369 0 2.441-.24 3.276-.62a6.484 6.484 0 0 1-.268-1.55c-.645.38-1.595.67-3.008.67-2.422 0-3.486-.85-3.98-1.555a2.986 2.986 0 0 1-.513-1.359 1.527 1.527 0 0 1-.007-.079v-.257a.75.75 0 0 1 .75-.75h7.482c.249-.477.555-.919.909-1.317A2.243 2.243 0 0 0 11.75 13h-7.5ZM23 17.5a5.5 5.5 0 1 1-11 0 5.5 5.5 0 0 1 11 0Zm-2.146-2.354a.5.5 0 0 0-.708 0L16.5 18.793l-1.646-1.647a.5.5 0 0 0-.708.708l2 2a.5.5 0 0 0 .708 0l4-4a.5.5 0 0 0 0-.708Z"/></svg>
